X: 2579
T: Ballyogan
R: reel
M: 4/4
K: Bminor
dBBA ~B2AB|dB ~B2 BAFA|dBBA ~B2 dB|1 ~A3B ADFA:|2 ~A3F GFDF||
|:(DE)BA (EF)AF|(DE)BA dBAF|1 (DE)BA (EF)AF|~d3e dBAF:|
[2 (DE)BA (EF) (3ABd|fdef dBAB||
"Variation"
dBBA ~B2AB|dB ~B2 BAFA|dBBA ~B2 dB|1 ~A3B ADFA:|2 ~A3F GFDF||
(DE)BA (EF)AF|(DE)BA dBAF|(DE)BA (EF)AF|~d3e dBAF|
E">"d">"BA F">"d">"AF|E">"d">"BA dBAF|(DE)BA (EF) (3ABd|"*"fdef dBAB||
"*End"
fdef dBAF|E8||

